X:2

T:Whinny Hills of Leitrim, The [1]

S:Michael Tubridy (flute)

B:Folk Music and Dances of Ireland (Breathnach)

Z:Transcribed by Paul de Grae

R:slip jig

M:9/8

L:1/8

K:D

FAB FAB {AB}AFD|FAB FAB d2 z|

FAB FAB {AB}AFD|ABd edc B2 A|

FAB FAB {AB}AFD|FAB FAB d2 A|

FAB FAB {AB}AFD|ABd {a}edc (4BcBA||

f{a}f{e}f e{a}fe d2 z|f{a}f{e}f efg a2 g|

f{a}f{e}f efe dBA|{B}AFA dfa (4bc'ba|

f{a}f{e}f e{a}fe d2 z|f{a}f{e}f def {a}gfg|

{b}afd {a}gfe dBA|{c}BAF DFA B2 z|

 

WHINNY HILLS OF LEITRIM [2], THE (Cnoic Aiteannach Liadroma). Irish, Slip Jig. D Mixolydian (‘A’ part) & G Major (‘B’ part). Standard tuning (fiddle). AB (Breathnach): AABB (Boys of the Lough): AA'BB' (Sullivan, Taylor). Source for notated version: accordionist Sonny Brogan (County Sligo/Dublin, Ireland) [Breathnach]. Boys of the Lough, 1977; p. 12. Breathnach (CRÉ I), 1963; No. 67, p. 29. Sullivan (Session Tunes), vol. 2; No. 42, p. 17. Taylor (Traditional Irish Music: Karen Tweed’s Irish Choice), 1994; p. 44. Chulrua – “Barefoot on the Altar.” Sean Potts with Ceoltoiri Cualann – "O'Riada sa Gaeity,"

